arrow-top-right-bold-box-outline.svg

<svg fill="currentColor" viewBox="0 0 24 24"><path d="M16 8v7.1L13.9 13l-4.1 3.9L7 14l4.1-3.9L8.9 8zM3 5v14c0 1.1.9 2 2 2h14c1.1 0 2-.9 2-2V5c0-1.1-.9-2-2-2H5c-1.1 0-2 .9-2 2m2 0h14v14H5z"/></svg>

<svg  viewBox="0 0 24 24" fill="currentColor"><path  d="M16 8V15.1L13.9 13L9.8 16.9L7 14L11.1 10.1L8.9 8H16M3 5V19C3 20.1 3.9 21 5 21H19C20.1 21 21 20.1 21 19V5C21 3.9 20.1 3 19 3H5C3.9 3 3 3.9 3 5M5 5H19V19H5V5Z"/></svg>
